X: 994
T: A sprig of shillelah
C: anon.
O: Ireland
B: Francis O'Neill: "The Dance Music of Ireland" (1907) no. 994
Z: Transcribed by Frank Nordberg - http://www.musicaviva.com
F: http://www.musicaviva.com/abc/tunes/ireland/oneill-1001/oneill-1001-099
4.abc
M: 6/8
L: 1/8
K: G
E|DEF GFG|ABA AGF|GBd dcB|AcB AGF|GAB EFG|(DE)F G2::c|BGB dBd|ece (d2c)|
BGB def|gfe dcB|cec BdB|AcB AGF|GBd dcB|AcB AGF|GAB EFG|(DE)F G2:|
W:
W:
W: From Musica Viva - http://www.musicaviva.com
W: the Internet center for free sheet music downloads.


